communes/31.svg

<?xml version="1.0" encoding="UTF-8" standalone="no"?>
<!-- Created with Inkscape (http://www.inkscape.org/) -->
<svg
   xmlns:svg="http://www.w3.org/2000/svg"
   xmlns="http://www.w3.org/2000/svg"
   version="1.0"
   width="217.72026"
   height="255.02536"
   id="svg2780">
  <defs
     id="defs2782" />
  <g
     transform="translate(-15.038592,-799.20918)"
     id="layer1">
    <path
       d="M 16.038592,800.20919 L 19.960775,964.96989 C 22.762326,1082.6561 225.0351,1082.6561 227.83666,964.96989 L 231.75885,800.20919 L 16.038592,800.20919 z"
       id="path3282"
       style="fill:#f8e639;fill-opacity:1;fill-rule:evenodd;stroke:#000000;stroke-width:2;stroke-linecap:butt;stroke-miterlimit:4;stroke-dashoffset:0;stroke-opacity:1" />
    <path
       d="M 109.99003,1000.8499 C 100.38363,986.87177 79.934041,982.59979 52.958655,952.87359 C 79.934041,982.59979 100.38363,986.87177 109.99003,1000.8499 C 113.93533,1006.5906 116.14312,1008.4333 116.11061,1010.1706 C 116.06858,1012.417 116.86667,1016.6596 120.52829,1020.1938 L 120.52829,1039.8661 C 123.33265,1040.3803 126.05056,1040.6532 128.85039,1039.8661 L 128.85039,1020.1938 C 132.51202,1016.6596 133.31011,1012.417 133.26807,1010.1706 C 133.23556,1008.4333 135.51706,1006.1318 139.83116,1000.6628 C 149.0763,988.94289 186.9345,966.70527 199.86876,946.99744 C 186.9345,966.70527 149.0763,988.94289 139.83116,1000.6628 C 142.74262,1004.8672 144.07389,1006.3557 148.3536,1007.4511 C 148.73899,1006.813 149.03187,1006.1847 149.41507,1005.3757 C 152.8638,1007.7667 156.31253,1008.1645 159.76126,1007.6751 C 159.46322,1006.9937 159.16519,1006.3125 158.86715,1005.6311 C 162.72596,1005.9786 166.48926,1005.8483 170.10746,1004.9924 C 169.97973,1004.226 169.852,1003.4596 169.72427,1002.6931 C 173.50456,1002.0607 177.0344,1000.4264 180.5814,998.86082 C 180.19821,998.39242 179.81502,997.92404 179.43182,997.45564 C 182.94527,996.49843 185.67807,994.7605 187.98978,992.60144 C 187.09567,992.34596 186.20155,992.09048 185.30744,991.83499 C 188.88891,990.5701 192.16999,988.55411 195.27045,986.08659 C 194.46149,985.74594 193.65253,985.40529 192.84356,985.06464 C 195.1489,983.18778 197.24245,981.33867 198.59145,979.69947 C 197.78249,979.44399 196.97353,979.1885 196.16456,978.93301 C 198.71725,977.08462 200.7159,974.31277 202.55111,971.26848 C 201.74214,971.14074 200.93318,971.013 200.12422,970.88525 C 202.00515,968.25777 203.16028,965.44884 204.08388,962.582 C 203.14719,962.41168 202.2105,962.24136 201.2738,962.07103 C 203.37705,959.6303 204.30571,956.95462 205.23346,954.27875 C 204.29676,954.6194 203.36007,954.96004 202.42338,955.3007 C 205.49911,950.23358 205.0365,945.16647 204.85027,940.09936 C 203.00913,942.57937 200.8067,944.4271 198.87525,946.18449 C 198.38885,945.36515 197.72615,944.60786 197.5696,943.5484 C 194.60884,944.95246 192.28224,946.77933 190.03348,948.65809 C 190.11863,947.55098 190.20379,946.44389 190.28894,945.33679 C 186.84236,946.44604 184.0877,948.24728 181.34778,950.06326 C 181.3052,949.21164 181.26263,948.36003 181.22005,947.50841 C 178.00953,948.52929 174.99551,950.53267 172.02343,952.74585 C 171.8957,951.63874 171.94861,951.25427 171.82088,950.14717 C 169.3909,951.54 166.93228,952.81819 164.74277,955.17295 C 164.8705,953.85295 164.54664,953.43621 164.67437,952.11621 C 161.31078,954.30524 158.39881,956.01539 155.03523,959.64393 C 155.29069,958.70715 155.54615,957.77037 155.80161,956.8336 C 152.18649,958.55451 150.23944,961.75828 148.77641,965.39233 C 148.47837,964.15749 148.18033,962.92265 147.88229,961.68781 C 144.97665,963.84996 143.67066,967.46648 143.41171,972.03493 C 143.07109,970.97041 142.73048,969.90589 142.38986,968.84137 C 138.7403,971.16056 138.54604,975.09235 138.43021,979.06075 C 137.62124,978.59237 136.81228,978.12398 136.00332,977.65559 C 135.87551,980.97689 135.70466,984.29819 136.51425,987.61949 C 135.66271,987.44916 134.9918,987.27885 134.14027,986.56656 C 134.35483,990.73021 135.22539,995.04965 138.55518,997.77538 C 134.72418,1001.1605 130.38225,1005.4397 128.59493,1009.9744 L 128.21174,975.35623 C 128.19097,973.47978 130.93666,970.24654 133.06551,968.84137 C 133.19324,965.30718 133.32098,961.77297 133.44871,958.23877 C 131.69272,958.87356 129.39481,960.23098 128.27107,961.85939 C 128.10075,953.89679 128.38205,946.65679 128.21174,938.69419 L 121.16694,938.69419 C 120.99663,946.65679 121.27793,953.89679 121.10762,961.85939 C 119.98387,960.23098 117.68596,958.87356 115.92997,958.23877 C 116.0577,961.77297 116.18544,965.30718 116.31317,968.84137 C 118.44202,970.24654 121.18771,973.47978 121.16694,975.35623 L 120.78375,1009.9744 C 118.99643,1005.4397 114.6545,1001.1605 110.8235,997.77538 C 114.15329,995.04965 115.02385,990.73021 115.23841,986.56656 C 114.38688,987.27885 113.71597,987.44916 112.86443,987.61949 C 113.31274,985.29179 113.14189,981.06722 113.01408,977.74592 C 112.20512,978.2143 111.75744,978.59237 110.94847,979.06075 C 110.83264,975.09235 110.00614,972.51547 107.71137,969.20269 C 107.37075,970.26721 106.30759,970.97041 105.96697,972.03493 C 105.70802,967.46648 104.40203,963.84996 101.49639,961.68781 C 101.19835,962.92265 100.90031,964.15749 100.60227,965.39233 C 99.139232,961.75828 97.192187,958.55451 93.57707,956.8336 C 93.832531,957.77037 94.087992,958.70715 94.343453,959.64393 C 90.97987,956.01539 88.067895,954.30524 84.704313,952.11621 C 84.832044,953.43621 84.508178,953.85295 84.635908,955.17295 C 82.446402,952.81819 79.987775,951.54 77.557803,950.14717 C 77.430072,951.25427 77.482982,951.63874 77.355252,952.74585 C 74.383172,950.53267 71.369147,948.52929 68.158629,947.50841 C 68.116049,948.36003 68.073478,949.21164 68.030897,950.06326 C 65.153873,948.79574 62.43362,946.85687 59.089736,945.33679 C 59.174887,946.44389 59.260047,947.55098 59.345197,948.65809 C 57.096438,946.77933 54.769836,944.95246 51.80908,943.5484 C 51.471894,944.78852 51.170467,945.81678 51.135666,946.81679 C 49.204214,945.20738 46.36955,942.89916 44.528413,940.09936 C 44.342178,945.16647 43.879565,950.23358 46.955303,955.3007 C 46.153699,954.68984 45.186877,954.40946 44.145223,954.27875 C 45.07297,956.95462 46.001629,959.6303 48.104877,962.07103 C 47.168183,962.24136 46.231489,962.41168 45.294797,962.582 C 46.218403,965.44884 47.64449,968.70941 49.525419,971.33689 C 48.716456,971.46463 47.636535,971.14074 46.827571,971.26848 C 48.662775,974.31277 50.932391,977.44593 53.485073,979.29433 C 52.67611,979.54981 51.505869,978.90203 50.696907,979.15751 C 52.045906,980.79671 54.500737,983.63941 56.806075,985.51628 C 55.997111,985.85693 54.917191,985.38462 54.108228,985.72527 C 57.208694,988.1928 60.128493,990.84108 63.709966,992.10597 L 61.388895,992.60144 C 63.700607,994.7605 67.155962,997.22105 70.66941,998.17826 L 68.797281,998.86082 C 72.344281,1000.4264 75.874116,1002.0607 79.654409,1002.6931 C 78.984763,1003.3693 78.224798,1003.7743 77.64547,1004.1795 C 81.263673,1005.0354 86.291437,1006.2495 90.150252,1005.9021 C 89.852211,1006.5834 89.55418,1007.2647 89.256139,1007.946 C 92.704871,1008.4355 96.514881,1007.7667 99.963614,1005.3757 C 100.34681,1006.1847 100.63969,1006.813 101.02508,1007.4511 C 104.99279,1006.7306 107.98081,1004.5136 109.99003,1000.8499 z"
       id="path16570"
       style="fill:#3c723a;fill-opacity:1;fill-rule:evenodd;stroke:#000000;stroke-width:1px;stroke-linecap:butt;stroke-linejoin:round;stroke-opacity:1" />
    <g
       transform="matrix(1.1758312,0,0,1.1758312,-22.842182,-156.43902)"
       id="g2614">
      <path
         d="M 122.85891,14.452919 L 139.00283,59.061609 L 186.41696,60.630547 L 148.98032,89.769168 L 162.13994,135.34751 L 122.85891,108.74748 L 83.577873,135.34751 L 96.7375,89.769167 L 59.300861,60.630543 L 106.71499,59.061608 L 122.85891,14.452919 z"
         transform="matrix(0.848724,0,0,0.8487245,20.536078,814.96074)"
         id="path16632"
         style="fill:#3c723a;fill-opacity:1;fill-rule:evenodd;stroke:#000000;stroke-width:1.00125873;stroke-linecap:butt;stroke-linejoin:round;stroke-miterlimit:4;stroke-dasharray:none;stroke-opacity:1" />
      <path
         d="M 115.90046,898.0871 C 111.67505,895.0455 96.931604,901.9093 96.779355,909.0748 C 96.629144,916.1446 80.730935,919.6053 75.67431,896.807 C 70.597426,873.9172 89.338866,870.8357 97.455207,878.5688 C 105.61957,886.3476 108.47884,882.2847 108.90052,881.2608 C 109.2834,880.3312 107.6823,871.5605 98.466575,871.9647 C 89.255536,872.3688 77.482276,859.0734 94.433058,845.6928 C 111.21908,832.44218 120.5961,841.8788 121.22255,848.8135 C 121.84983,855.7575 118.91883,869.1736 124.26976,868.9467 C 129.52503,868.7239 129.98026,859.4316 129.79002,848.4039 C 129.60147,837.4721 142.60614,837.7205 152.12457,844.4927 C 161.70674,851.3103 166.36192,859.6802 160.69732,865.8391 C 155.07646,871.9505 136.77148,874.0398 139.2647,879.7519 C 141.74283,885.4295 155.65384,878.097 162.24585,876.2137 C 168.92641,874.3051 176.92436,882.5337 171.84521,899.8012 C 166.79201,916.9803 155.22845,915.8137 151.45306,912.6073 C 147.72456,909.4407 139.47511,894.0437 134.62829,898.1349 C 129.67826,902.313 143.66743,915.5748 144.59388,918.403 C 145.54874,921.3181 144.61975,934.5452 122.79489,932.8559 C 101.07248,931.1744 103.4868,918.5409 105.34973,915.6236 C 107.1854,912.749 120.43085,901.3482 115.90046,898.0871 z"
         id="path16592"
         style="color:#000000;fill:#ce3821;fill-opacity:1;fill-rule:evenodd;stroke:#000000;stroke-width:0.85046214px;stroke-linecap:butt;stroke-linejoin:miter;marker:none;marker-start:none;marker-mid:none;marker-end:none;stroke-miterlimit:4;stroke-dashoffset:0;stroke-opacity:1;visibility:visible;display:inline;overflow:visible;enable-background:accumulate" />
      <path
         d="M 114.01042,899.7831 C 109.81372,896.4681 108.88424,909.6464 99.969419,912.4961 C 84.828171,917.3365 85.953612,898.8281 86.244918,897.1613 C 86.519987,895.5872 72.476061,879.4891 85.117386,874.4181 C 94.96052,870.4697 104.29866,884.538 106.53123,879.3148 C 108.7487,874.1268 94.192656,875.4382 89.771097,869.3477 C 80.719419,856.8795 99.247611,851.6392 100.97792,851.7978 C 102.81116,851.9658 112.18818,838.1116 120.57857,844.663 C 129.12179,851.3337 117.60637,866.7504 124.39259,867.0006 C 131.27453,867.2544 120.60812,852.4746 129.81701,845.4035 C 139.08607,838.2863 147.22199,853.1317 148.41335,853.7607 C 149.5628,854.3675 167.09973,856.7567 160.53261,867.9186 C 153.92364,879.1516 138.41786,873.4274 141.40039,878.956 C 144.42306,884.559 157.51313,867.5198 165.43591,876.2804 C 173.40623,885.0936 162.35669,895.4573 162.09536,896.8007 C 161.81221,898.2562 162.42202,915.5356 150.94876,913.5367 C 139.56852,911.5538 140.13922,896.3014 135.80549,899.6392 C 131.42581,903.0124 148.07465,908.9145 145.10013,921.4545 C 142.14713,933.9041 124.75439,923.2845 123.01355,924.5838 C 121.31976,925.8481 106.6183,930.4162 103.26799,920.3302 C 99.946359,910.3307 118.26586,903.1447 114.01042,899.7831 z"
         id="path4048"
         style="color:#000000;fill:#ce3821;fill-opacity:1;fill-rule:evenodd;stroke:#000000;stroke-width:0.84979254;stroke-linecap:butt;stroke-linejoin:miter;marker:none;marker-start:none;marker-mid:none;marker-end:none;stroke-miterlimit:4;stroke-dasharray:none;stroke-dashoffset:0;stroke-opacity:1;visibility:visible;display:inline;overflow:visible;enable-background:accumulate" />
      <path
         d="M 123.03518,107.1987 L 118.34825,87.38807 L 98.722034,89.534166 L 116.11472,78.954811 L 108.00883,60.95235 L 123.44503,74.224578 L 138.06153,60.952349 L 130.20894,79.734393 L 147.34832,89.534165 L 127.05896,87.869878 L 123.03518,107.1987 z"
         transform="matrix(0.8486381,0,0,0.8486379,20.143538,816.34374)"
         id="path16628"
         style="fill:none;fill-opacity:1;fill-rule:evenodd;stroke:#000000;stroke-width:1.00136054;stroke-linecap:butt;stroke-linejoin:round;stroke-miterlimit:4;stroke-dasharray:none;stroke-opacity:1" />
      <path
         d="M 138.72305,82.515686 A 13.925185,13.925185 0 1 1 110.87268,82.515686 A 13.925185,13.925185 0 1 1 138.72305,82.515686 z"
         transform="matrix(0.9946837,0,0,0.9946371,0.6187879,802.86506)"
         id="path16624"
         style="opacity:1;color:#000000;fill:#f8e639;fill-opacity:1;fill-rule:evenodd;stroke:#000000;stroke-width:0.85502777pt;stroke-linecap:butt;stroke-linejoin:miter;marker:none;marker-start:none;marker-mid:none;marker-end:none;stroke-miterlimit:4;stroke-dasharray:none;stroke-dashoffset:0;stroke-opacity:1;visibility:visible;display:inline;overflow:visible;enable-background:accumulate" />
    </g>
  </g>
</svg>

<?xml version="1.0" encoding="UTF-8"?>
<svg version="1.0" viewBox="0 0 217.72 255.03" xmlns="http://www.w3.org/2000/svg">
<g transform="translate(-15.039 -799.21)" stroke="#000">
<path d="m16.039 800.21 3.9222 164.76c2.8016 117.69 205.07 117.69 207.88 0l3.9222-164.76h-215.72z" fill="#f8e639" fill-rule="evenodd" stroke-width="2"/>
<path d="m109.99 1000.8c-9.6064-13.978-30.056-18.25-57.031-47.976 26.975 29.726 47.425 33.998 57.031 47.976 3.9453 5.7407 6.1531 7.5834 6.1206 9.3207-0.04203 2.2464 0.75606 6.489 4.4177 10.023v19.672c2.8044 0.5142 5.5223 0.7871 8.3221 0v-19.672c3.6616-3.5342 4.4597-7.7768 4.4177-10.023-0.03251-1.7373 2.249-4.0388 6.5631-9.5078 9.2451-11.72 47.103-33.958 60.038-53.665-12.934 19.708-50.792 41.945-60.038 53.665 2.9115 4.2044 4.2427 5.6929 8.5224 6.7883 0.38539-0.6381 0.67827-1.2664 1.0615-2.0754 3.4487 2.391 6.8975 2.7888 10.346 2.2994-0.29804-0.6814-0.59607-1.3626-0.89411-2.044 3.8588 0.3475 7.6221 0.2172 11.24-0.6387-0.12773-0.7664-0.25546-1.5328-0.38319-2.2993 3.7803-0.6324 7.3101-2.2667 10.857-3.8323-0.38319-0.4684-0.76638-0.93678-1.1496-1.4052 3.5134-0.95721 6.2462-2.6951 8.558-4.8542-0.89411-0.25548-1.7882-0.51096-2.6823-0.76645 3.5815-1.2649 6.8626-3.2809 9.963-5.7484-0.80896-0.34065-1.6179-0.6813-2.4269-1.022 2.3053-1.8769 4.3989-3.726 5.7479-5.3652-0.80896-0.25548-1.6179-0.51097-2.4269-0.76646 2.5527-1.8484 4.5513-4.6202 6.3866-7.6645-0.80897-0.12774-1.6179-0.25548-2.4269-0.38323 1.8809-2.6275 3.0361-5.4364 3.9597-8.3032-0.93669-0.17032-1.8734-0.34064-2.8101-0.51097 2.1032-2.4407 3.0319-5.1164 3.9597-7.7923-0.9367 0.34065-1.8734 0.68129-2.8101 1.022 3.0757-5.0671 2.6131-10.134 2.4269-15.201-1.8411 2.48-4.0436 4.3277-5.975 6.0851-0.4864-0.81934-1.1491-1.5766-1.3056-2.6361-2.9608 1.4041-5.2874 3.2309-7.5361 5.1097 0.08515-1.1071 0.17031-2.2142 0.25546-3.3213-3.4466 1.1092-6.2012 2.9105-8.9412 4.7265-0.04258-0.85162-0.08515-1.7032-0.12773-2.5548-3.2105 1.0209-6.2245 3.0243-9.1966 5.2374-0.12773-1.1071-0.07482-1.4916-0.20255-2.5987-2.43 1.3928-4.8886 2.671-7.0781 5.0258 0.12773-1.32-0.19613-1.7367-0.0684-3.0567-3.3636 2.189-6.2756 3.8992-9.6391 7.5277 0.25546-0.93678 0.51092-1.8736 0.76638-2.8103-3.6151 1.7209-5.5622 4.9247-7.0252 8.5587l-0.89412-3.7045c-2.9056 2.1622-4.2116 5.7787-4.4706 10.347-0.34062-1.0645-0.68123-2.129-1.0218-3.1936-3.6496 2.3192-3.8438 6.251-3.9596 10.219-0.80897-0.46838-1.6179-0.93677-2.4269-1.4052-0.12781 3.3213-0.29866 6.6426 0.51093 9.9639-0.85154-0.17033-1.5224-0.34064-2.374-1.0529 0.21456 4.1636 1.0851 8.4831 4.4149 11.209-3.831 3.3851-8.1729 7.6643-9.9602 12.199l-0.38319-34.618c-0.02077-1.8764 2.7249-5.1097 4.8538-6.5149 0.12773-3.5342 0.25547-7.0684 0.3832-10.603-1.756 0.63479-4.0539 1.9922-5.1776 3.6206-0.17032-7.9626 0.11098-15.203-0.05933-23.165h-7.0448c-0.17031 7.9626 0.11099 15.203-0.05932 23.165-1.1238-1.6284-3.4217-2.9858-5.1776-3.6206 0.12773 3.5342 0.25547 7.0684 0.3832 10.603 2.1288 1.4052 4.8745 4.6384 4.8538 6.5149l-0.38319 34.618c-1.7873-4.5347-6.1292-8.8139-9.9602-12.199 3.3298-2.7257 4.2004-7.0452 4.4149-11.209-0.85153 0.71229-1.5224 0.8826-2.374 1.0529 0.44831-2.3277 0.27746-6.5523 0.14965-9.8736-0.80896 0.46838-1.2566 0.84645-2.0656 1.3148-0.11583-3.9684-0.94233-6.5453-3.2371-9.8581-0.34062 1.0645-1.4038 1.7677-1.7444 2.8322-0.25895-4.5684-1.5649-8.185-4.4706-10.347l-0.89412 3.7045c-1.463-3.634-3.4101-6.8378-7.0252-8.5587 0.25546 0.93677 0.51092 1.8736 0.76638 2.8103-3.3636-3.6285-6.2756-5.3387-9.6391-7.5277 0.12773 1.32-0.19614 1.7367-0.068405 3.0567-2.1895-2.3548-4.6481-3.633-7.0781-5.0258-0.12773 1.1071-0.074821 1.4916-0.20255 2.5987-2.9721-2.2132-5.9861-4.2166-9.1966-5.2374-0.04258 0.85162-0.085151 1.7032-0.12773 2.5548-2.877-1.2675-5.5973-3.2064-8.9412-4.7265 0.085151 1.1071 0.17031 2.2142 0.25546 3.3213-2.2488-1.8788-4.5754-3.7056-7.5361-5.1097-0.33719 1.2401-0.63861 2.2684-0.67341 3.2684-1.9315-1.6094-4.7661-3.9176-6.6073-6.7174-0.18624 5.0671-0.64885 10.134 2.4269 15.201-0.8016-0.61086-1.7684-0.89124-2.8101-1.022 0.92775 2.6759 1.8564 5.3516 3.9597 7.7923-0.93669 0.17033-1.8734 0.34065-2.8101 0.51097 0.92361 2.8668 2.3497 6.1274 4.2306 8.7549-0.80896 0.12774-1.8889-0.19615-2.6978-0.06841 1.8352 3.0443 4.1048 6.1774 6.6575 8.0258-0.80896 0.25548-1.9792-0.3923-2.7882-0.13682 1.349 1.6392 3.8038 4.4819 6.1092 6.3588-0.80896 0.34065-1.8889-0.13166-2.6978 0.20899 3.1005 2.4675 6.0203 5.1158 9.6017 6.3807l-2.3211 0.49547c2.3117 2.1591 5.7671 4.6196 9.2805 5.5768l-1.8721 0.68256c3.547 1.5656 7.0768 3.1999 10.857 3.8323-0.66965 0.6762-1.4296 1.0812-2.0089 1.4864 3.6182 0.8559 8.646 2.07 12.505 1.7226-0.29804 0.6813-0.59607 1.3626-0.89411 2.0439 3.4487 0.4895 7.2587-0.1793 10.707-2.5703 0.3832 0.809 0.67608 1.4373 1.0615 2.0754 3.9677-0.7205 6.9557-2.9375 8.965-6.6012z" fill="#3c723a" fill-rule="evenodd" stroke-linejoin="round" stroke-width="1px"/>
<g transform="matrix(1.1758 0 0 1.1758 -22.842 -156.44)">
<path transform="matrix(.84872 0 0 .84872 20.536 814.96)" d="m122.86 14.453 16.144 44.609 47.414 1.5689-37.437 29.139 13.16 45.578-39.281-26.6-39.281 26.6 13.16-45.578-37.437-29.139 47.414-1.5689 16.144-44.609z" fill="#3c723a" fill-rule="evenodd" stroke-linejoin="round" stroke-width="1.0013"/>
<path d="m115.9 898.09c-4.2254-3.0416-18.969 3.8222-19.121 10.988-0.15021 7.0698-16.048 10.53-21.105-12.268-5.0769-22.89 13.665-25.971 21.781-18.238 8.1644 7.7788 11.024 3.7159 11.445 2.692 0.38288-0.9296-1.2182-9.7003-10.434-9.2961-9.211 0.4041-20.984-12.891-4.0335-26.272 16.786-13.251 26.163-3.814 26.789 3.1207 0.62728 6.944-2.3037 20.36 3.0472 20.133 5.2553-0.2228 5.7105-9.5151 5.5203-20.543-0.18855-10.932 12.816-10.683 22.335-3.9112 9.5822 6.8176 14.237 15.188 8.5728 21.346-5.6209 6.1114-23.926 8.2007-21.433 13.913 2.4781 5.6776 16.389-1.6549 22.981-3.5382 6.6806-1.9086 14.679 6.32 9.5994 23.588-5.0532 17.179-16.617 16.012-20.392 12.806-3.7285-3.1666-11.978-18.564-16.825-14.472-4.95 4.1781 9.0391 17.44 9.9656 20.268 0.95486 2.9151 0.02587 16.142-21.799 14.453-21.722-1.6815-19.308-14.315-17.445-17.232 1.8357-2.8746 15.081-14.275 10.551-17.536z" color="#000000" fill="#ce3821" fill-rule="evenodd" stroke-width=".85046px"/>
<path d="m114.01 899.78c-4.1967-3.315-5.1262 9.8633-14.041 12.713-15.141 4.8404-14.016-13.668-13.725-15.335 0.27507-1.5741-13.769-17.672-1.1275-22.743 9.8431-3.9484 19.181 10.12 21.414 4.8967 2.2175-5.188-12.339-3.8766-16.76-9.9671-9.0517-12.468 9.4765-17.708 11.207-17.55 1.8332 0.168 11.21-13.686 19.601-7.1348 8.5432 6.6707-2.9722 22.087 3.814 22.338 6.8819 0.2538-3.7845-14.526 5.4244-21.597 9.2691-7.1172 17.405 7.7282 18.596 8.3572 1.1494 0.6068 18.686 2.996 12.119 14.158-6.609 11.233-22.115 5.5088-19.132 11.037 3.0227 5.603 16.113-11.436 24.036-2.6756 7.9703 8.8132-3.0792 19.177-3.3406 20.52-0.28315 1.4555 0.32666 18.735-11.147 16.736-11.38-1.9829-10.81-17.235-15.143-13.898-4.3797 3.3732 12.269 9.2753 9.2946 21.815-2.953 12.45-20.346 1.83-22.087 3.1293-1.6938 1.2643-16.395 5.8324-19.746-4.2536-3.3216-9.9995 14.998-17.186 10.742-20.547z" color="#000000" fill="#ce3821" fill-rule="evenodd" stroke-width=".84979"/>
<path transform="matrix(.84864 0 0 .84864 20.144 816.34)" d="m123.04 107.2-4.6869-19.811-19.626 2.1461 17.393-10.579-8.1059-18.002 15.436 13.272 14.616-13.272-7.8526 18.782 17.139 9.7998-20.289-1.6643-4.0238 19.329z" fill="none" stroke-linejoin="round" stroke-width="1.0014"/>
<path transform="matrix(.99468 0 0 .99464 .61879 802.87)" d="m138.72 82.516a13.925 13.925 0 1 1-27.85 0 13.925 13.925 0 1 1 27.85 0z" color="#000000" fill="#f8e639" fill-rule="evenodd" stroke-width=".85503pt"/>
</g>
</g>
</svg>
